**kern	**kern
*part1	*part1
*staff2	*staff1
*I"Piano	*
*clefF4	*clefG2
*k[b-]	*k[b-]
=1	=1
8AA	16ddLL
.	16aa
16ALL 16d 16f	16gg
16AJ 16d 16f	16ff
8AJ 8d 8f	16ee
.	16ffJJ
=	=
8AA	16eeLL
.	16dd
16G#XLL 16Bn 16f	16cc#X
16G#J 16B 16f	16dd
8G#J 8B 8f	16ee
.	16ffJJ
=	=
8AA	16eeLL
.	16cc#X
16ALL 16c#X 16e	16a
16AJ 16c# 16e	16b-)
8A^J 8cn 8e-X 8f#X	(16ccn^
.	16ddJJ
=	=
8D^	16ee-XLL
.	16dd
16ALL 16c 16e-X 16f#X	16cc
16AJ 16c 16e- 16f#	16aa
8AJ 8c 8e- 8f#	16gg
.	16ff#XJJ
=	=
8D	16ggLL
.	16ddd
16B-LL 16d 16g	16ccc
16B-J 16d 16g	16bb-
8B-J 8d 8g	16aa
.	16bb-JJ
=	=
8D	16aaLL
.	16gg
*clefG2	*
16dLL 16en 16g 16cc#X	16ff#X
16dJ 16e 16g 16cc#	16gg
8dJ 8e 8g 8cc#	16aa
.	16bb-JJ
*clefF4	*
=	=
8D	16aaLL
.	16ff#X
*clefG2	*
16dLL 16f#X 16a	16dd
16dJ 16f# 16a	16ff#
8dJ 8g 8b-	16cc#X
.	16eeJJ)
=	=
*-	*-
!!!system-decoration: {(s1,s2)}
